X: 30904
T: Over The Cabot Trail
R: jig
M: 6/8
K: Gmajor
|:D|GDG GB/c/d|edB dBA|B^AB GBd|edB AFD|
G2 G GBd|edB g2 f|edB deg|BAG G2:|
|:e/f/|gdg edB|dB/c/d g2 f|g2 g edB|dBG A2 a|
gdg e2 B|dBd g2 f|edB deg|BAG G2:|

